public/ids-logo--blue.svg

<svg width="44" height="29" viewBox="0 0 44 29" fill="none" xmlns="http://www.w3.org/2000/svg">
<path d="M0.220409 1.18122H2.86776V28H0.220409V1.18122ZM14.8024 1.18122C17.3602 1.18122 19.6878 1.76952 21.7853 2.94612C23.9083 4.12272 25.5708 5.74694 26.773 7.81877C28.0008 9.86503 28.6146 12.1287 28.6146 14.6098C28.6146 17.0909 28.0008 19.3546 26.773 21.4008C25.5708 23.4471 23.9083 25.0585 21.7853 26.2351C19.6623 27.4117 17.3091 28 14.7257 28H4.02117V1.18122H14.8024ZM14.8791 25.6212C16.8998 25.6212 18.7542 25.1352 20.4424 24.1633C22.1306 23.1913 23.4606 21.874 24.4326 20.2114C25.4302 18.5233 25.9289 16.6561 25.9289 14.6098C25.9289 12.5635 25.4302 10.6963 24.4326 9.00816C23.4351 7.32 22.0794 5.98993 20.3657 5.01796C18.6775 4.04598 16.8103 3.56 14.764 3.56H6.66852V25.6212H14.8791ZM42.042 5.5551C40.9422 4.86449 39.74 4.34013 38.4355 3.98204C37.131 3.59837 35.9032 3.40653 34.7522 3.40653C32.9106 3.40653 31.4271 3.77741 30.3016 4.51918C29.2017 5.23537 28.6518 6.22013 28.6518 7.47347C28.6518 8.57333 28.9588 9.46857 29.5726 10.1592C30.1865 10.8498 30.9411 11.3997 31.8363 11.809C32.7315 12.1927 33.9593 12.6275 35.5196 13.1135C37.3356 13.6506 38.7936 14.1878 39.8934 14.7249C41.0189 15.2365 41.9653 15.991 42.7326 16.9886C43.5256 17.9861 43.922 19.3034 43.922 20.9404C43.922 22.3728 43.5128 23.6389 42.6943 24.7388C41.9013 25.8386 40.7759 26.6955 39.3179 27.3094C37.86 27.8977 36.1846 28.1918 34.2918 28.1918C32.4246 28.1918 30.5958 27.821 28.8053 27.0792C27.0404 26.3374 25.5185 25.3527 24.2396 24.1249L25.4673 21.938C26.6695 23.1146 28.0635 24.0354 29.6494 24.7004C31.2352 25.3654 32.7955 25.698 34.3302 25.698C36.3764 25.698 38.0007 25.2887 39.2028 24.4702C40.405 23.6261 41.0061 22.5007 41.0061 21.0939C41.0061 19.9684 40.6992 19.0476 40.0853 18.3314C39.4714 17.6152 38.7168 17.0653 37.8216 16.6816C36.9264 16.298 35.673 15.8503 34.0616 15.3388C32.2456 14.7761 30.7876 14.2517 29.6877 13.7657C28.5879 13.2541 27.6543 12.5124 26.8869 11.5404C26.1196 10.5429 25.7359 9.25116 25.7359 7.6653C25.7359 6.30966 26.1196 5.12027 26.8869 4.09714C27.6543 3.07401 28.7285 2.29388 30.1098 1.75673C31.491 1.19401 33.0896 0.912651 34.9057 0.912651C36.3636 0.912651 37.8216 1.13007 39.2796 1.5649C40.7631 1.99973 42.0676 2.57524 43.193 3.29143L42.042 5.5551Z" fill="#1C303C"/>
</svg>

<svg width="44" height="29" fill="none" xmlns="http://www.w3.org/2000/svg"><path d="M.22 1.181h2.648V28H.22V1.181Zm14.582 0c2.558 0 4.886.589 6.983 1.765 2.123 1.177 3.786 2.8 4.988 4.873 1.228 2.046 1.842 4.31 1.842 6.79 0 2.482-.614 4.746-1.842 6.792-1.202 2.046-2.865 3.657-4.988 4.834C19.662 27.412 17.31 28 14.725 28H4.022V1.181h10.781Zm.077 24.44c2.02 0 3.875-.486 5.563-1.458a10.756 10.756 0 0 0 3.99-3.952c.998-1.688 1.497-3.555 1.497-5.601s-.499-3.914-1.496-5.602a10.874 10.874 0 0 0-4.067-3.99c-1.689-.972-3.556-1.458-5.602-1.458H6.669v22.061h8.21ZM42.042 5.555a13.418 13.418 0 0 0-3.607-1.573c-1.304-.384-2.532-.575-3.683-.575-1.841 0-3.325.37-4.45 1.112-1.1.716-1.65 1.701-1.65 2.954 0 1.1.307 1.996.92 2.686a6.727 6.727 0 0 0 2.264 1.65c.895.384 2.123.819 3.684 1.305 1.816.537 3.274 1.074 4.373 1.61a7.398 7.398 0 0 1 2.84 2.265c.793.997 1.189 2.314 1.189 3.951 0 1.433-.41 2.699-1.228 3.799-.793 1.1-1.918 1.956-3.376 2.57-1.458.589-3.133.883-5.026.883-1.867 0-3.696-.371-5.487-1.113-1.765-.742-3.287-1.726-4.565-2.954l1.227-2.187A13.237 13.237 0 0 0 29.65 24.7c1.586.665 3.146.998 4.681.998 2.046 0 3.67-.41 4.873-1.228 1.202-.844 1.803-1.97 1.803-3.376 0-1.126-.307-2.046-.92-2.763a6.102 6.102 0 0 0-2.264-1.65c-.896-.383-2.149-.83-3.76-1.342-1.816-.563-3.274-1.087-4.374-1.573a7.626 7.626 0 0 1-2.801-2.226c-.767-.997-1.151-2.289-1.151-3.875 0-1.355.384-2.545 1.15-3.568.768-1.023 1.843-1.803 3.224-2.34 1.381-.563 2.98-.844 4.796-.844 1.458 0 2.916.217 4.374.652 1.483.435 2.788 1.01 3.913 1.726l-1.151 2.264Z" fill="#1C303C"/></svg>
